static/svgs/conference/index/audience-icon-solid.svg

<?xml version="1.0" encoding="UTF-8"?>
<svg width="20px" height="20px" viewBox="0 0 20 20" version="1.1" xmlns="http://www.w3.org/2000/svg" xmlns:xlink="http://www.w3.org/1999/xlink">
    <!-- Generator: Sketch 53 (72520) - https://sketchapp.com -->
    <title>Conference/Audience</title>
    <desc>Created with Sketch.</desc>
    <defs>
        <path d="M6.40270486,11.6725381 C7.31197051,10.7151528 8.58759444,10 10,10 C11.4124056,10 12.6880295,10.7151528 13.5972951,11.6725381 C14.2262123,10.7631066 15.291589,10 16.5,10 C18.4329966,10 20,11.9526215 20,13.3333333 C20,14.7140452 18.4329966,15 16.5,15 C15.9580623,15 15.4448927,14.9775232 14.9869578,14.914746 C14.8005446,16.6343629 12.6390368,17 10,17 C7.36096316,17 5.19945541,16.6343629 5.01304222,14.914746 C4.55510734,14.9775232 4.04193766,15 3.5,15 C1.56700338,15 0,14.7140452 0,13.3333333 C0,11.9526215 1.56700338,10 3.5,10 C4.70841098,10 5.77378766,10.7631066 6.40270486,11.6725381 Z M3.66,9 C2.5554305,9 1.66,8.1045695 1.66,7 C1.66,5.8954305 2.5554305,5 3.66,5 C4.7645695,5 5.66,5.8954305 5.66,7 C5.66,8.1045695 4.7645695,9 3.66,9 Z M16.66,9 C15.5554305,9 14.66,8.1045695 14.66,7 C14.66,5.8954305 15.5554305,5 16.66,5 C17.7645695,5 18.66,5.8954305 18.66,7 C18.66,8.1045695 17.7645695,9 16.66,9 Z M10,9 C8.34314575,9 7,7.65685425 7,6 C7,4.34314575 8.34314575,3 10,3 C11.6568542,3 13,4.34314575 13,6 C13,7.65685425 11.6568542,9 10,9 Z" id="path-1"></path>
    </defs>
    <g id="Conference/Audience" stroke="none" stroke-width="1" fill="none" fill-rule="evenodd">
        <mask id="mask-2" fill="white">
            <use xlink:href="#path-1"></use>
        </mask>
        <use id="Audience" fill="#575E75" xlink:href="#path-1"></use>
        <g id="Blue/1_Blue" mask="url(#mask-2)" fill="#4D97FF">
            <rect id="Primary-Blue" x="0" y="0" width="20" height="20"></rect>
        </g>
    </g>
</svg>

<svg width="20" height="20" xmlns="http://www.w3.org/2000/svg" xmlns:xlink="http://www.w3.org/1999/xlink"><defs><path d="M6.403 11.673C7.312 10.715 8.588 10 10 10s2.688.715 3.597 1.673c.63-.91 1.695-1.673 2.903-1.673 1.933 0 3.5 1.953 3.5 3.333C20 14.714 18.433 15 16.5 15c-.542 0-1.055-.022-1.513-.085C14.801 16.635 12.639 17 10 17c-2.639 0-4.8-.366-4.987-2.085-.458.063-.971.085-1.513.085-1.933 0-3.5-.286-3.5-1.667C0 11.953 1.567 10 3.5 10c1.208 0 2.274.763 2.903 1.673zM3.66 9a2 2 0 1 1 0-4 2 2 0 0 1 0 4zm13 0a2 2 0 1 1 0-4 2 2 0 0 1 0 4zM10 9a3 3 0 1 1 0-6 3 3 0 0 1 0 6z" id="a"/></defs><g fill="none" fill-rule="evenodd"><mask id="b" fill="#fff"><use xlink:href="#a"/></mask><use fill="#575E75" xlink:href="#a"/><g mask="url(#b)" fill="#4D97FF"><path d="M0 0h20v20H0z"/></g></g></svg>
